packages/components/Atoms/Icon/assets/img/rpl_icon_lock.svg

<svg width="16" height="16" viewBox="0 0 16 16" overflow="visible" xmlns="http://www.w3.org/2000/svg">
  <path d="M1 16C0.447715 16 0 15.5523 0 15V6C0 5.44772 0.447715 5 1 5H15C15.5523 5 16 5.44772 16 6V15C16 15.5523 15.5523 16 15 16H1ZM2 14H14V7H2V14Z"
    fill="inherit" />
  <path d="M6 6H4V4C4 1.79072 5.79072 0 8 0C9.3446 0 10.5775 0.669397 11.315 1.76134C11.7594 2.41755 12 3.19167 12 4V6.031H10V4C10 3.59409 9.88061 3.21002 9.65832 2.88172C9.28831 2.33392 8.67329 2 8 2C6.89528 2 6 2.89528 6 4V6Z"
    fill="inherit" />
  <path fill-rule="evenodd" clip-rule="evenodd" d="M9 10C9 10.553 8.553 11 8 11C7.447 11 7 10.553 7 10C7 9.447 7.447 9 8 9C8.553 9 9 9.447 9 10Z"
    fill="inherit" />
</svg>

<svg width="16" height="16" overflow="visible" xmlns="http://www.w3.org/2000/svg"><path d="M1 16a1 1 0 01-1-1V6a1 1 0 011-1h14a1 1 0 011 1v9a1 1 0 01-1 1H1zm1-2h12V7H2v7z" fill="inherit"/><path d="M6 6H4V4a4 4 0 118 0v2.031h-2V4a1.995 1.995 0 00-2-2 2 2 0 00-2 2v2z" fill="inherit"/><path fill-rule="evenodd" clip-rule="evenodd" d="M9 10a1 1 0 11-2 0 1 1 0 112 0z" fill="inherit"/></svg>
